!!! OTL: Berkowitz276
!!! Chapter: 1
!!! Section: II
!!! Page: 66
!!! Mode: 
!!! Encoder: DJB
**kern
*staff1
*I"Piano
=1-
*clefG2
*k[]
*d:
*M3/4
4d/
8f/L
8g/J
8a/L
8f/J
=2
4g/
4a/
8r
8a/
=3
8cc\L
8dd\J
8cc\L
8a\J
8b\L
8cc\J
=4
2a/
8r
8a/
=5
8cc\L
8dd\J
8cc\L
8a\J
8b\L
8cc\J
=6
4b\
4g/
8r
8f/
=7
8g/L
8a/J
8f/L
8e/J
4c/
=8
2.d/
==
*-
